!!!SOCIAL_FUNCTION:	council songs
!!!PDT:	1918

Specific Region: Dakotas, Minnesota, Montana, Nebraska
!!!REG: Dakotas and Montana
!!!LING_GROUP: Siouan
!!!LANG: Tone
!!!OTL@ENG: His Customs I Adopted
!!!ONM: No. 187
**kern
*Imale
*clefF4
*k[b-]
*M2/4
*MM66
4f
8.g
16g
=2
4..f
16f
=3
2d
=4
4d
8.f
16g
=5
8f
8d
12f
12d
12f
=6
2c
=7
4c
8.d
16d
=8
8d
8c
12d
12c
12c
=9
2A
=10
4A
8.c
16d
=11
8c
8A
12B-
12A
12A
=12||
*M3/4
4F
4F
12c
12F
12A
=13
4F
4C
12d
12d
12c
=14
8.c
16A
4d
16d
8.f
=15||
*M2/4
16f
8.f
8.f
16d
=16
16d
8.d
(12f
12d)
12c
=17
2c
=18
8.c
16c
8.d
16d
=19||
*M3/4
(8d
8c)
(12d
12c)
12c
8.A
16A
=20||
*M2/4
4A
8.c
16c
=21
16c
8.A
12B-
12A
12A
=22||
*M3/4
4F
4F
12c
12F
12A
=23
4F
2r
==
*-
!!!CNT: Native American -- Sioux
!!!MRD: 1911/07//-1914///
!!!OCL: Frances Densmore
!!!YOR1: Teton Sioux Music, Bulletin 61,
!!!YOR2: Bureau of American Ethnology, Smithsonian Institution
!!!PPR: Government Printing Office
!!!PPP: Washington, D.C.
!!!PDT: 1918///
!!!ENC: Craig Stuart Sapp
!!!END: 2002/03/25/
!!!EEV: 2002/03/31/
!!!AGN: Council Song
!!!MPN@@SIO: Waha'changka-ya'pi
!!!MPN@ENG: Used-as-a-Shield
!!!TXO: Teton Sioux
!!!MLC: Standing Rock Reservation, South Dakota, United States of America
!!!ARL: 45.9/-100.7#
!!!catalog: Catalogue No. 615
!!!PPG: 451
!!!EFL: 192/245
!!!VTS: 1816769295
